X:242
T:Sleep Sound In The Morning
R:reel
M:4/4
L:1/8
K:Ador
Aaag a2ef | gedB GABG | Aaag a2ef |1 gedB A3G :|2 gedB A3B ||
cAeA cAeA | BcdB G3B | cAeA cAeA | BAGB A3B |
cAeA cAeA | BcdB G3B | ABcd efga | gedB BAAG |]
